Catalina-light/actions/16/view-grid-symbolic.svg

<?xml version="1.0" encoding="UTF-8" standalone="no"?>
<svg
   xmlns:dc="http://purl.org/dc/elements/1.1/"
   xmlns:cc="http://creativecommons.org/ns#"
   xmlns:rdf="http://www.w3.org/1999/02/22-rdf-syntax-ns#"
   xmlns:svg="http://www.w3.org/2000/svg"
   xmlns="http://www.w3.org/2000/svg"
   xmlns:sodipodi="http://sodipodi.sourceforge.net/DTD/sodipodi-0.dtd"
   xmlns:inkscape="http://www.inkscape.org/namespaces/inkscape"
   viewBox="0 0 16 16"
   id="svg3663"
   version="1.1"
   inkscape:version="0.91 r13725"
   sodipodi:docname="view-grid-symbolic.svg">
  <metadata
     id="metadata3671">
    <rdf:RDF>
      <cc:Work
         rdf:about="">
        <dc:format>image/svg+xml</dc:format>
        <dc:type
           rdf:resource="http://purl.org/dc/dcmitype/StillImage" />
      </cc:Work>
    </rdf:RDF>
  </metadata>
  <sodipodi:namedview
     pagecolor="#ffffff"
     bordercolor="#666666"
     borderopacity="1"
     objecttolerance="10"
     gridtolerance="10"
     guidetolerance="10"
     inkscape:pageopacity="0"
     inkscape:pageshadow="2"
     inkscape:window-width="640"
     inkscape:window-height="480"
     id="namedview3669"
     showgrid="false"
     inkscape:zoom="7.0379223"
     inkscape:cx="-29.547431"
     inkscape:cy="6.3808669"
     inkscape:current-layer="svg3663" />
  <defs
     id="defs3051">
    <style
       type="text/css"
       id="current-color-scheme">
      .ColorScheme-Text {
        color:#bebebe;
      }
      </style>
  </defs>
  <g
     id="g3203">
    <path
       inkscape:connector-curvature="0"
       id="path3199"
       d="m 8.0005579,1.9999998 c -0.2721705,0 -0.5232383,0.066675 -0.7530683,0.2008181 C 7.0176365,2.3349372 6.8349614,2.5176362 6.7008181,2.7474897 6.5666511,2.977343 6.5,3.2284114 6.5,3.5005577 6.5,3.7727281 6.566699,4.0237483 6.7008181,4.2536258 6.8349614,4.4834314 7.0176365,4.6650387 7.2474896,4.7991819 7.4773436,4.933325 7.7283874,5 8.0005579,5 8.2727284,5 8.5237962,4.933325 8.7536262,4.7991819 8.9834555,4.6650627 9.1650387,4.4834554 9.2991815,4.2536258 9.433301,4.0237723 9.5,3.7727041 9.5,3.5005577 9.5,3.2283874 9.43328,2.9773191 9.2991815,2.7474897 9.1650387,2.51766 8.9834555,2.3349611 8.7536262,2.2008179 8.5237489,2.0666748 8.2727524,1.9999998 8.0005579,1.9999998 Z"
       style="color:#bebebe;fill:currentColor;fill-opacity:1;stroke:none" />
    <path
       inkscape:connector-curvature="0"
       id="path3197"
       d="M 3.4994422,2 C 3.227272,2.0000018 2.9773193,2.0677672 2.7474897,2.2018604 2.5176363,2.3359296 2.3349613,2.5174453 2.2008182,2.7472132 2.066651,2.9769812 2,3.2279559 2,3.5000008 2,3.7720698 2.066699,4.0229967 2.2008182,4.2527885 2.3349613,4.4825085 2.5165206,4.6640481 2.7463741,4.7981414 2.9762277,4.9322345 3.227272,5 3.4994422,5 3.7716125,5 4.0226807,4.932234 4.2525102,4.7981414 4.4823397,4.6640721 4.6650387,4.4825325 4.7991818,4.2527885 4.933301,4.0230206 5,3.7720459 5,3.5000008 5,3.2279319 4.9332771,2.9769572 4.7991818,2.7472132 4.6650387,2.5174693 4.4823397,2.3359536 4.2525102,2.2018604 4.0226328,2.0677672 3.7716365,2.0000018 3.4994422,2.0000018 Z"
       style="color:#bebebe;fill:currentColor;fill-opacity:1;stroke:none" />
    <path
       inkscape:connector-curvature="0"
       id="path3195"
       d="M 12.500558,2 C 12.228388,2 11.977319,2.06668 11.74749,2.200818 11.517636,2.334937 11.334961,2.517637 11.200818,2.74749 11.066651,2.977344 11,3.228412 11,3.500558 c 0,0.27217 0.0667,0.52319 0.200818,0.753068 0.134143,0.229805 0.316818,0.411413 0.546672,0.545556 C 11.977344,4.933325 12.228388,5 12.500558,5 12.772728,5 13.023796,4.93332 13.253626,4.799182 13.483455,4.665062 13.665039,4.483455 13.799182,4.253626 13.933301,4.023772 14,3.772705 14,3.500558 14,3.228387 13.93328,2.977319 13.799182,2.74749 13.665039,2.517663 13.483455,2.334964 13.253626,2.20082 13.023748,2.066677 12.772752,2.000002 12.500558,2.000002 Z"
       style="color:#bebebe;fill:currentColor;fill-opacity:1;stroke:none" />
    <path
       inkscape:connector-curvature="0"
       id="path3667"
       d="M 3.4994421,11 C 3.2272719,11 2.9762036,11.06668 2.7463741,11.200818 2.5165206,11.334937 2.3349613,11.51652 2.2008182,11.746374 2.0666511,11.976226 2,12.227296 2,12.499441 c 0,0.27217 0.066699,0.52319 0.2008182,0.753068 0.1341431,0.229805 0.3157024,0.412528 0.5455559,0.546671 C 2.9762276,13.933324 3.2272719,14 3.4994421,14 3.7716125,14 4.0226807,13.93332 4.2525102,13.799182 4.4823398,13.665063 4.6650387,13.48234 4.7991818,13.252511 4.9333011,13.022658 5,12.771589 5,12.499444 5,12.227273 4.933277,11.976205 4.7991818,11.746376 4.6650387,11.516546 4.4823398,11.334963 4.2525102,11.20082 4.0226328,11.066677 3.7716364,11.000002 3.4994421,11.000002 Z"
       style="color:#bebebe;fill:currentColor;fill-opacity:1;stroke:none" />
    <path
       style="color:#bebebe;fill:currentColor;fill-opacity:1;stroke:none"
       d="M 8.0005579,11 C 7.7283874,11 7.4773196,11.066675 7.2474896,11.200818 7.0176365,11.334937 6.8349614,11.517636 6.7008181,11.74749 6.5666511,11.977343 6.5,12.228411 6.5,12.500558 c 0,0.27217 0.066699,0.52319 0.2008181,0.753068 0.1341433,0.229805 0.3168184,0.411413 0.5466715,0.545556 C 7.4773436,13.933325 7.7283874,14 8.0005579,14 8.2727284,14 8.5237962,13.933325 8.7536262,13.799182 8.9834555,13.665063 9.1650387,13.483455 9.2991815,13.253626 9.433301,13.023772 9.5,12.772704 9.5,12.500558 9.5,12.228387 9.43328,11.977319 9.2991815,11.74749 9.1650387,11.51766 8.9834555,11.334961 8.7536262,11.200818 8.5237489,11.066675 8.2727524,11 8.0005579,11 Z"
       id="path3205"
       inkscape:connector-curvature="0" />
    <path
       style="color:#bebebe;fill:currentColor;fill-opacity:1;stroke:none"
       d="m 12.500558,11 c -0.27217,0 -0.523239,0.06668 -0.753068,0.200818 -0.229854,0.134119 -0.412529,0.316819 -0.546672,0.546672 C 11.066651,11.977344 11,12.228412 11,12.500558 c 0,0.27217 0.0667,0.52319 0.200818,0.753068 0.134143,0.229805 0.316818,0.411413 0.546672,0.545556 C 11.977344,13.933325 12.228388,14 12.500558,14 c 0.27217,0 0.523238,-0.06668 0.753068,-0.200818 0.229829,-0.13412 0.411413,-0.315727 0.545556,-0.545556 C 13.933301,13.023772 14,12.772705 14,12.500558 14,12.228387 13.93328,11.977319 13.799182,11.74749 13.665039,11.517663 13.483455,11.334964 13.253626,11.20082 13.023748,11.066677 12.772752,11.000002 12.500558,11.000002 Z"
       id="path3207"
       inkscape:connector-curvature="0" />
    <path
       style="color:#bebebe;fill:currentColor;fill-opacity:1;stroke:none"
       d="M 3.4994421,6.5 C 3.2272719,6.5 2.9762036,6.56668 2.7463741,6.700818 2.5165206,6.834937 2.3349613,7.01652 2.2008182,7.246374 2.0666511,7.476226 2,7.727296 2,7.999441 2,8.271611 2.066699,8.522631 2.2008182,8.752509 2.3349613,8.982314 2.5165206,9.165037 2.7463741,9.29918 2.9762276,9.433324 3.2272719,9.5 3.4994421,9.5 3.7716125,9.5 4.0226807,9.43332 4.2525102,9.299182 4.4823398,9.165063 4.6650387,8.98234 4.7991818,8.752511 4.9333011,8.522658 5,8.271589 5,7.999444 5,7.727273 4.933277,7.476205 4.7991818,7.246376 4.6650387,7.016546 4.4823398,6.834963 4.2525102,6.70082 4.0226328,6.566677 3.7716364,6.500002 3.4994421,6.500002 Z"
       id="path3209"
       inkscape:connector-curvature="0" />
    <path
       inkscape:connector-curvature="0"
       id="path3211"
       d="M 8.0005579,6.5 C 7.7283874,6.5 7.4773196,6.56668 7.2474896,6.700818 7.0176365,6.834937 6.8349614,7.017636 6.7008181,7.24749 6.5666511,7.477343 6.5,7.728411 6.5,8.000558 6.5,8.272728 6.566699,8.523748 6.7008181,8.753626 6.8349614,8.983431 7.0176365,9.165039 7.2474896,9.299182 7.4773436,9.433325 7.7283874,9.5 8.0005579,9.5 8.2727284,9.5 8.5237962,9.433325 8.7536262,9.299182 8.9834555,9.165063 9.1650387,8.983455 9.2991815,8.753626 9.433301,8.523772 9.5,8.272704 9.5,8.000558 9.5,7.728387 9.43328,7.477319 9.2991815,7.24749 9.1650387,7.01766 8.9834555,6.834961 8.7536262,6.700818 8.5237489,6.566675 8.2727524,6.5 8.0005579,6.5 Z"
       style="color:#bebebe;fill:currentColor;fill-opacity:1;stroke:none" />
    <path
       inkscape:connector-curvature="0"
       id="path3213"
       d="M 12.500558,6.5 C 12.228388,6.5 11.977319,6.56668 11.74749,6.700818 11.517636,6.834937 11.334961,7.017637 11.200818,7.24749 11.066651,7.477344 11,7.728412 11,8.000558 c 0,0.27217 0.0667,0.52319 0.200818,0.753068 0.134143,0.229805 0.316818,0.411413 0.546672,0.545556 C 11.977344,9.433325 12.228388,9.5 12.500558,9.5 c 0.27217,0 0.523238,-0.06668 0.753068,-0.200818 0.229829,-0.13412 0.411413,-0.315727 0.545556,-0.545556 C 13.933301,8.523772 14,8.272705 14,8.000558 14,7.728387 13.93328,7.477319 13.799182,7.24749 13.665039,7.017663 13.483455,6.834964 13.253626,6.70082 13.023748,6.566677 12.772752,6.500002 12.500558,6.500002 Z"
       style="color:#bebebe;fill:currentColor;fill-opacity:1;stroke:none" />
  </g>
</svg>

<svg version="1.1" viewBox="0 0 16 16" xmlns="http://www.w3.org/2000/svg">
<defs>
<style id="current-color-scheme" type="text/css">.ColorScheme-Text {
        color:#bebebe;
      }</style>
</defs>
<g fill="currentColor">
<path d="m8.0006 2c-0.27217 0-0.52324 0.066675-0.75307 0.20082-0.22985 0.13412-0.41253 0.31682-0.54667 0.54667-0.13417 0.22985-0.20082 0.48092-0.20082 0.75307 0 0.27217 0.066699 0.52319 0.20082 0.75307 0.13414 0.22981 0.31682 0.41141 0.54667 0.54556 0.22985 0.13414 0.4809 0.20082 0.75307 0.20082s0.52324-0.066675 0.75307-0.20082c0.22983-0.13412 0.41141-0.31573 0.54556-0.54556 0.13412-0.22985 0.20082-0.48092 0.20082-0.75307 0-0.27217-0.06672-0.52324-0.20082-0.75307-0.13414-0.22983-0.31573-0.41253-0.54556-0.54667-0.22988-0.13414-0.48087-0.20082-0.75307-0.20082z" color="#bebebe"/>
<path d="m3.4994 2c-0.27217 1.8e-6 -0.52212 0.067767-0.75195 0.20186-0.22985 0.13407-0.41253 0.31558-0.54667 0.54535-0.13417 0.22977-0.20082 0.48074-0.20082 0.75279 0 0.27207 0.066699 0.523 0.20082 0.75279 0.13414 0.22972 0.3157 0.41126 0.54556 0.54535 0.22985 0.13409 0.4809 0.20186 0.75307 0.20186s0.52324-0.067766 0.75307-0.20186c0.22983-0.13407 0.41253-0.31561 0.54667-0.54535 0.13412-0.22977 0.20082-0.48074 0.20082-0.75279 0-0.27207-0.066723-0.52304-0.20082-0.75279-0.13414-0.22974-0.31684-0.41126-0.54667-0.54535-0.22988-0.13409-0.48087-0.20186-0.75307-0.20186z" color="#bebebe"/>
<path d="m12.501 2c-0.27217 0-0.52324 0.06668-0.75307 0.20082-0.22985 0.13412-0.41253 0.31682-0.54667 0.54667-0.13417 0.22985-0.20082 0.48092-0.20082 0.75307 0 0.27217 0.0667 0.52319 0.20082 0.75307 0.13414 0.2298 0.31682 0.41141 0.54667 0.54556s0.4809 0.20082 0.75307 0.20082 0.52324-0.06668 0.75307-0.20082c0.22983-0.13412 0.41141-0.31573 0.54556-0.54556 0.13412-0.22985 0.20082-0.48092 0.20082-0.75307 0-0.27217-0.06672-0.52324-0.20082-0.75307-0.13414-0.22983-0.31573-0.41253-0.54556-0.54667-0.22988-0.13414-0.48087-0.20082-0.75307-0.20082z" color="#bebebe"/>
<path d="m3.4994 11c-0.27217 0-0.52324 0.06668-0.75307 0.20082-0.22985 0.13412-0.41141 0.3157-0.54556 0.54556-0.13417 0.22985-0.20082 0.48092-0.20082 0.75307 0 0.27217 0.066699 0.52319 0.20082 0.75307 0.13414 0.2298 0.3157 0.41253 0.54556 0.54667 0.22985 0.13414 0.4809 0.20082 0.75307 0.20082s0.52324-0.06668 0.75307-0.20082c0.22983-0.13412 0.41253-0.31684 0.54667-0.54667 0.13412-0.22985 0.20082-0.48092 0.20082-0.75307 0-0.27217-0.066723-0.52324-0.20082-0.75307-0.13414-0.22983-0.31684-0.41141-0.54667-0.54556-0.22988-0.13414-0.48087-0.20082-0.75307-0.20082z" color="#bebebe"/>
<path d="m8.0006 11c-0.27217 0-0.52324 0.066675-0.75307 0.20082-0.22985 0.13412-0.41253 0.31682-0.54667 0.54667-0.13417 0.22985-0.20082 0.48092-0.20082 0.75307 0 0.27217 0.066699 0.52319 0.20082 0.75307 0.13414 0.2298 0.31682 0.41141 0.54667 0.54556 0.22985 0.13414 0.4809 0.20082 0.75307 0.20082s0.52324-0.066675 0.75307-0.20082c0.22983-0.13412 0.41141-0.31573 0.54556-0.54556 0.13412-0.22985 0.20082-0.48092 0.20082-0.75307 0-0.27217-0.06672-0.52324-0.20082-0.75307-0.13414-0.22983-0.31573-0.41253-0.54556-0.54667-0.22988-0.13414-0.48087-0.20082-0.75307-0.20082z" color="#bebebe"/>
<path d="m12.501 11c-0.27217 0-0.52324 0.06668-0.75307 0.20082-0.22985 0.13412-0.41253 0.31682-0.54667 0.54667-0.13417 0.22985-0.20082 0.48092-0.20082 0.75307 0 0.27217 0.0667 0.52319 0.20082 0.75307 0.13414 0.2298 0.31682 0.41141 0.54667 0.54556s0.4809 0.20082 0.75307 0.20082 0.52324-0.06668 0.75307-0.20082c0.22983-0.13412 0.41141-0.31573 0.54556-0.54556 0.13412-0.22985 0.20082-0.48092 0.20082-0.75307 0-0.27217-0.06672-0.52324-0.20082-0.75307-0.13414-0.22983-0.31573-0.41253-0.54556-0.54667-0.22988-0.13414-0.48087-0.20082-0.75307-0.20082z" color="#bebebe"/>
<path d="m3.4994 6.5c-0.27217 0-0.52324 0.06668-0.75307 0.20082-0.22985 0.13412-0.41141 0.3157-0.54556 0.54556-0.13417 0.22985-0.20082 0.48092-0.20082 0.75307 0 0.27217 0.066699 0.52319 0.20082 0.75307 0.13414 0.2298 0.3157 0.41253 0.54556 0.54667 0.22985 0.13414 0.4809 0.20082 0.75307 0.20082s0.52324-0.06668 0.75307-0.20082c0.22983-0.13412 0.41253-0.31684 0.54667-0.54667 0.13412-0.22985 0.20082-0.48092 0.20082-0.75307 0-0.27217-0.066723-0.52324-0.20082-0.75307-0.13414-0.22983-0.31684-0.41141-0.54667-0.54556-0.22988-0.13414-0.48087-0.20082-0.75307-0.20082z" color="#bebebe"/>
<path d="m8.0006 6.5c-0.27217 0-0.52324 0.06668-0.75307 0.20082-0.22985 0.13412-0.41253 0.31682-0.54667 0.54667-0.13417 0.22985-0.20082 0.48092-0.20082 0.75307 0 0.27217 0.066699 0.52319 0.20082 0.75307 0.13414 0.2298 0.31682 0.41141 0.54667 0.54556 0.22985 0.13414 0.4809 0.20082 0.75307 0.20082s0.52324-0.066675 0.75307-0.20082c0.22983-0.13412 0.41141-0.31573 0.54556-0.54556 0.13412-0.22985 0.20082-0.48092 0.20082-0.75307 0-0.27217-0.06672-0.52324-0.20082-0.75307-0.13414-0.22983-0.31573-0.41253-0.54556-0.54667-0.22988-0.13414-0.48087-0.20082-0.75307-0.20082z" color="#bebebe"/>
<path d="m12.501 6.5c-0.27217 0-0.52324 0.06668-0.75307 0.20082-0.22985 0.13412-0.41253 0.31682-0.54667 0.54667-0.13417 0.22985-0.20082 0.48092-0.20082 0.75307 0 0.27217 0.0667 0.52319 0.20082 0.75307 0.13414 0.2298 0.31682 0.41141 0.54667 0.54556s0.4809 0.20082 0.75307 0.20082 0.52324-0.06668 0.75307-0.20082c0.22983-0.13412 0.41141-0.31573 0.54556-0.54556 0.13412-0.22985 0.20082-0.48092 0.20082-0.75307 0-0.27217-0.06672-0.52324-0.20082-0.75307-0.13414-0.22983-0.31573-0.41253-0.54556-0.54667-0.22988-0.13414-0.48087-0.20082-0.75307-0.20082z" color="#bebebe"/>
</g>
</svg>
